X: 14083
T: French Painter
R: polka
M: 2/4
K: Cmajor
|:EG AG|EG DG|CG AG|EG DG|
CG AG|EG c>d|cd ec|dB c2:|
|:eg ed|cB AG|AB cd|ec d2|
[1 eg ed|cB AG|cd ec|dB c2:|
[2 gf ed|cB AG|cd ec|dB c2||

